X: 42209
T: Waves In The Sand
R: jig
M: 6/8
K: Edorian
|:~E3 BEE|gBB ecc|~d3 AFB|AFD EDB,|
~E3 BEE|gBB ecc|~d3 AFB|1 AFD E2D:|2 AFD E2F||
|:~G3 BGE|eBg fec|~d3 AFB|AFD FDB,|
[1 ~G3 BGE|eBg fec|~d3 AFB|AFD E2F:|
[2 ~G3 AGA|~B3 g2g|age dBA|FDB, E2D||

